X:1
%
T:Tadhg an dá bheisd
T:Taig with the two waistcoats
M:6/8
L:1/8
R:Jig
S:The mid-19th cent. music manuscript collection of James Goodman (County Cork, p. 118)
F: http://goodman.itma.ie/volume-one#?c=0&m=0&s=0&cv=121&z=1398.9575%2C963.8022%2C7374.2874%2C4466.6667
Z:AK/Fiddler’s Companion
K:Edor
BcA BGE|EFE BGE|BcA BGE|DED AFD|
BcA BGE|EFE BGE|BcA BGB|A2E GED:|
|:BcA dBG|Bdd dBG|BcA dBG|FAF GED|
Bdd dBG|Bdd dBG|BcA BGB|A2F GED:|

